!!!OTL: 166. Freylekhs
!!!Genre:	Freylekhs
!!!Mode:	Major
!!!Listening/dance:	dance
!!!:	*g:
!!!One_Mode:	no
**kern
*thru
*I"P1
*clefG2
*k[f#]
*g:
!LO:TX:a:i:t=G-minor
4g
4g
=7
8gL
8a
8b-
8ccJ
=8
(32dd^LLL
32ee-JJ
8.ddJ)
(32dd^LLL
32ee-JJ
8.ddJ)
=9
(32dd^LLL
32ee-JJ
8.ddJ)
(32dd^LLL
32ee-JJ
8.ddJ)
=10
8b-L
8a
8g
8b-J
=11
8aL
8g
8f#X
8aJ
=12
8g
[4.d
=13
8d]
8r
*>C
4d
=14||
4g
4g
=15
8gL
8a
8b-
8ccJ
=16
4dd
4dd
=17
4dd
4dd
!!!End-Modulation
!!!Begin-Modulation
*-
